X:1
T:Title
%%score { 1 | ( 2 3 ) }
L:1/8
Q:1/4=116
M:4/4
K:G
V:1 treble nm="Grand Piano"
V:2 bass 
V:3 bass 
V:1
 [Bd]4 [Bd]2 [Bd]2 | [ce]4 [Bd]4 | [Ac]8 | [GB]4 [GA]2 [Ae]2 | [Ad]4 A4 | [GB]8 | %6
w: J.~E.~Gould * *||||||
 [eg]4 [df]2 [ce]2 | [Bd]8 | e4 d2 c2 | B8 | [Ge]4 [Ad]2 [Gd]2 | [Gd]4 [Fc]4 | [GB]8 |] %13
w: |||||||
V:2
 [G,,G,]4 [G,,G,]2 [G,,G,]2 | [C,G,]4 [G,,G,]4 | [D,F,]8 | E,4 [C,E,]2 [C,G,]2 | [D,G,]4 [D,F,]4 | %5
 [G,,D,]8 | G,4 G,2 G,2 | G,8 | [G,,G,]4 [G,,F,]2 [G,,E,]2 | [G,,D,]8 | z2 G,2 [C,F,]2 [B,,G,]2 | %11
 [A,,E,]4 D,4 | [G,,D,]8 |] %13
V:3
 x8 | x8 | x8 | x8 | x8 | x8 | x8 | x8 | x8 | x8 | C,4 z4 | x8 | x8 |] %13

